X: 22487
T: Lady Charlotte Campbell's
R: reel
M: 4/4
K: Bminor
(~B3 f) dBfd|edcB AFcA|~B2 bf dBfB|AFec dBB:|
f2 (d>b) g2 (E>e)|c2 (A>a) f2 (D>d)|B2 (G>g) (e>d)c>B|A<cF<e dBBf|
dB(ba) gfed|cA(ag) (fe)dc|BG(gf) (ed)cB|AFec dBB||

